X: 8410
T: Cowboy, The
R: waltz
M: 3/4
K: Gmajor
|:B4 B2|B4 B2|BA G2 E2|D4 D2|E2 G2 G2|A2 G2 E2|D6|D6|
B2 B2 B2|B4 B2|BA G2 E2|D4 GG|A4 A2|B4 B2|A6|
F2 G2 A2|B3 B B2|B4 B2|BA G2 E2|D4 D2|E2 G2 G2|A2 G2 E2|D6|
D4 D2|D2 E2 F2|G2 A2 B2|d2 c2 A2|E2 F2 G2|B6|B4 A2|G6|G6:|

